src/allplatforms/css/icons/imgRepeatY.svg

<?xml version="1.0" encoding="utf-8"?>

<!DOCTYPE svg PUBLIC "-//W3C//DTD SVG 1.1//EN" "http://www.w3.org/Graphics/SVG/1.1/DTD/svg11.dtd">
<svg version="1.1" id="Layer_1" xmlns="http://www.w3.org/2000/svg" xmlns:xlink="http://www.w3.org/1999/xlink" x="0px" y="0px"
	 width="30px" height="30px" viewBox="0 0 30 30" enable-background="new 0 0 30 30" xml:space="preserve">
<g>
	<polygon fill="none" points="9.67,21.386 8,22.335 8,23 15,23 15,20.475 11.48,22.587 	"/>
	<polygon fill="none" points="11.52,9.815 15,7.728 15,7.002 8,7.002 8,9.612 9.73,8.628 	"/>
	<polygon fill="none" points="11.52,20.813 15,18.726 15,18 8,18 8,20.61 9.73,19.626 	"/>
	<polygon fill="none" points="9.67,10.388 8,11.337 8,12.002 15,12.002 15,9.477 11.48,11.589 	"/>
	<g>
		<polygon fill="#FFFFFF" points="22,8 19,12 21,12 21,22 23,22 23,12 25,12 		"/>
		<path fill="#FFFFFF" d="M6,14.002h11v-9H6V14.002z M15,12.002H8v-0.665l1.67-0.949l1.81,1.201L15,9.477V12.002z M8,7.002h7v0.726
			l-3.48,2.088L9.73,8.628L8,9.612V7.002z"/>
		<path fill="#FFFFFF" d="M6,25h11v-9H6V25z M15,23H8v-0.665l1.67-0.949l1.81,1.201L15,20.475V23z M8,18h7v0.726l-3.48,2.088
			l-1.79-1.188L8,20.61V18z"/>
	</g>
</g>
</svg>

<?xml version="1.0" encoding="UTF-8" standalone="no"?>
<svg
   xmlns:dc="http://purl.org/dc/elements/1.1/"
   xmlns:cc="http://creativecommons.org/ns#"
   xmlns:rdf="http://www.w3.org/1999/02/22-rdf-syntax-ns#"
   xmlns:svg="http://www.w3.org/2000/svg"
   xmlns="http://www.w3.org/2000/svg"
   xmlns:sodipodi="http://sodipodi.sourceforge.net/DTD/sodipodi-0.dtd"
   xmlns:inkscape="http://www.inkscape.org/namespaces/inkscape"
   version="1.1"
   id="Layer_1"
   x="0px"
   y="0px"
   width="30px"
   height="30px"
   viewBox="0 0 30 30"
   enable-background="new 0 0 30 30"
   xml:space="preserve"
   inkscape:version="0.48.5 r10040"
   sodipodi:docname="imgRepeatY.svg"><metadata
     id="metadata25"><rdf:RDF><cc:Work
         rdf:about=""><dc:format>image/svg+xml</dc:format><dc:type
           rdf:resource="http://purl.org/dc/dcmitype/StillImage" /></cc:Work></rdf:RDF></metadata><defs
     id="defs23" /><sodipodi:namedview
     pagecolor="#ffffff"
     bordercolor="#666666"
     borderopacity="1"
     objecttolerance="10"
     gridtolerance="10"
     guidetolerance="10"
     inkscape:pageopacity="0"
     inkscape:pageshadow="2"
     inkscape:window-width="805"
     inkscape:window-height="694"
     id="namedview21"
     showgrid="false"
     inkscape:zoom="7.8666667"
     inkscape:cx="15"
     inkscape:cy="15"
     inkscape:window-x="0"
     inkscape:window-y="0"
     inkscape:window-maximized="0"
     inkscape:current-layer="Layer_1" /><g
     id="g3015"><polygon
       points="8,23 15,23 15,20.475 11.48,22.587 9.67,21.386 8,22.335 "
       id="polygon5"
       style="fill:none" /><polygon
       points="15,7.002 8,7.002 8,9.612 9.73,8.628 11.52,9.815 15,7.728 "
       id="polygon7"
       style="fill:none" /><polygon
       points="15,18 8,18 8,20.61 9.73,19.626 11.52,20.813 15,18.726 "
       id="polygon9"
       style="fill:none" /><polygon
       points="8,12.002 15,12.002 15,9.477 11.48,11.589 9.67,10.388 8,11.337 "
       id="polygon11"
       style="fill:none" /><polygon
       transform="matrix(-1,0,0,-1,44,30)"
       style="fill:#ffffff"
       id="polygon15"
       points="25,12 22,8 19,12 21,12 21,22 23,22 23,12 " /><path
       style="fill:#ffffff"
       inkscape:connector-curvature="0"
       id="path17"
       d="m 6,14.002 h 11 v -9 H 6 v 9 z m 9,-2 H 8 V 11.337 L 9.67,10.388 11.48,11.589 15,9.477 v 2.525 z m -7,-5 h 7 V 7.728 L 11.52,9.816 9.73,8.628 8,9.612 v -2.61 z" /><path
       style="fill:#ffffff"
       inkscape:connector-curvature="0"
       id="path19"
       d="M 6,25 H 17 V 16 H 6 v 9 z m 9,-2 H 8 V 22.335 L 9.67,21.386 11.48,22.587 15,20.475 V 23 z M 8,18 h 7 v 0.726 L 11.52,20.814 9.73,19.626 8,20.61 V 18 z" /></g></svg>
